X: 1527
T:Paddy On The Turnpike
M:4/4
L:1/8
C:Trad.
S:Arr. Barra MacNeils
R:Reel
K:G
G=F|:DGGF G3 c|BGdG eGdG|A=FFE F2 Fc|A=FcF dFcF|!
AGGF G3 A|_BAGA _Bcde|=fg=fd cA=FA|_BGA=F G2 GF:||!
A|:dggf g2 dg|bgdg bgde|c=ffe f2 cf|a=fcf afcf|!
dggf g2 ga|_bga=f gdde|=fgfd cA=FA|_BGA=F G3 A:||!
